svgs/light/unlock-keyhole.svg

<svg xmlns="http://www.w3.org/2000/svg" viewBox="0 0 448 512"><!--! Font Awesome Pro 6.4.0 by @fontawesome - https://fontawesome.com License - https://fontawesome.com/license (Commercial License) Copyright 2023 Fonticons, Inc. --><path d="M224 32c-53 0-96 43-96 96v64H368c44.2 0 80 35.8 80 80V432c0 44.2-35.8 80-80 80H80c-44.2 0-80-35.8-80-80V272c0-44.2 35.8-80 80-80H96V128C96 57.3 153.3 0 224 0c58 0 107 38.6 122.7 91.4c2.5 8.5-2.3 17.4-10.8 19.9s-17.4-2.3-19.9-10.8C304.2 60.9 267.5 32 224 32zM80 224c-26.5 0-48 21.5-48 48V432c0 26.5 21.5 48 48 48H368c26.5 0 48-21.5 48-48V272c0-26.5-21.5-48-48-48H80zM264 368H184c-8.8 0-16-7.2-16-16s7.2-16 16-16h80c8.8 0 16 7.2 16 16s-7.2 16-16 16z"/></svg>

<svg xmlns="http://www.w3.org/2000/svg" viewBox="0 0 448 512"><!--! Font Awesome Pro 6.3.0 by @fontawesome - https://fontawesome.com License - https://fontawesome.com/license (Commercial License) Copyright 2023 Fonticons, Inc. --><path d="M184 368C175.2 368 168 360.8 168 352C168 343.2 175.2 336 184 336H264C272.8 336 280 343.2 280 352C280 360.8 272.8 368 264 368H184zM224 32C170.1 32 128 74.98 128 128V192H368C412.2 192 448 227.8 448 272V432C448 476.2 412.2 512 368 512H80C35.82 512 0 476.2 0 432V272C0 227.8 35.82 192 80 192H96V128C96 57.31 153.3 0 224 0C282 0 330.1 38.57 346.7 91.44C349.2 99.91 344.4 108.8 335.9 111.3C327.5 113.9 318.5 109 316 100.6C304.2 60.9 267.5 32 224 32L224 32zM80 224C53.49 224 32 245.5 32 272V432C32 458.5 53.49 480 80 480H368C394.5 480 416 458.5 416 432V272C416 245.5 394.5 224 368 224H80z"/></svg>
